icons/microscope-line.svg

<svg xmlns="http://www.w3.org/2000/svg" width="24" height="24" fill="none"><g clip-path="url(#a)"><g><path fill="#121212" d="M13.196 2.26796L16.446 7.89796C16.722 8.37496 16.558 8.98696 16.08 9.26296L14.78 10.013L15.781 11.745L14.049 12.745L13.049 11.012L11.75 11.763C11.272 12.039 10.66 11.875 10.384 11.397L8.546 8.21496C6.494 8.83696 5 10.745 5 13C5 13.625 5.115 14.224 5.324 14.776C6.1 14.284 7.016 14 8 14C9.684 14 11.174 14.833 12.08 16.109L19.768 11.67L20.768 13.402L12.89 17.951C12.962 18.289 13 18.641 13 19C13 19.343 12.966 19.677 12.9 20H21V22L4 22.001C3.372 21.165 3 20.126 3 19C3 17.993 3.298 17.055 3.81 16.27C3.293 15.295 3 14.182 3 13C3 10.005 4.881 7.44896 7.527 6.44996L7.134 5.76796C6.582 4.81096 6.909 3.58796 7.866 3.03596L10.464 1.53596C11.421 0.98396 12.644 1.31096 13.196 2.26796ZM8 16C6.343 16 5 17.343 5 19C5 19.35 5.06 19.687 5.17 20H10.83C10.94 19.687 11 19.35 11 19C11 17.343 9.657 16 8 16ZM11.464 3.26796L8.866 4.76796L11.616 9.53096L14.214 8.03096L11.464 3.26796Z"/></g></g><defs><clipPath id="a"><rect width="24" height="24" fill="white"/></clipPath></defs></svg>

<svg width="24" height="24" fill="none" xmlns="http://www.w3.org/2000/svg"><g clip-path="url(#a)"><path d="m13.196 2.268 3.25 5.63a1 1 0 0 1-.366 1.365l-1.3.75 1.001 1.732-1.732 1-1-1.733-1.299.751a1 1 0 0 1-1.366-.366L8.546 8.215a5.002 5.002 0 0 0-3.222 6.561A4.976 4.976 0 0 1 8 14c1.684 0 3.174.833 4.08 2.109l7.688-4.439 1 1.732-7.878 4.549A5.038 5.038 0 0 1 12.9 20H21v2l-17 .001A4.979 4.979 0 0 1 3 19c0-1.007.298-1.945.81-2.73a7.001 7.001 0 0 1 3.717-9.82l-.393-.682a2 2 0 0 1 .732-2.732l2.598-1.5a2 2 0 0 1 2.732.732ZM8 16a3 3 0 0 0-2.83 4h5.66A3 3 0 0 0 8 16Zm3.464-12.732-2.598 1.5 2.75 4.763 2.598-1.5-2.75-4.763Z" /></g><defs><clipPath id="a"><path fill="#fff" d="M0 0h24v24H0z"/></clipPath></defs></svg>
